resources/haticons/SVG/access_alarms.svg

<!-- Generated by IcoMoon.io -->
<svg version="1.1" xmlns="http://www.w3.org/2000/svg" width="24" height="24" viewBox="0 0 24 24">
<title>access_alarms</title>
<path d="M12 20.016q2.906 0 4.945-2.063t2.039-4.969-2.039-4.945-4.945-2.039-4.945 2.039-2.039 4.945 2.039 4.969 4.945 2.063zM12 3.984q3.75 0 6.375 2.625t2.625 6.375-2.625 6.375-6.375 2.625-6.375-2.625-2.625-6.375 2.625-6.375 6.375-2.625zM12.516 8.016v5.297l3.984 2.391-0.797 1.219-4.688-2.906v-6h1.5zM7.922 3.422l-4.641 3.797-1.266-1.5 4.594-3.797zM21.984 5.719l-1.266 1.5-4.641-3.938 1.313-1.5z"></path>
</svg>

<svg xmlns="http://www.w3.org/2000/svg" width="24" height="24"><path d="M12 20.016q2.906 0 4.945-2.063t2.039-4.969-2.039-4.945T12 6 7.055 8.039t-2.039 4.945 2.039 4.969T12 20.016zm0-16.032q3.75 0 6.375 2.625T21 12.984t-2.625 6.375T12 21.984t-6.375-2.625T3 12.984t2.625-6.375T12 3.984zm.516 4.032v5.297l3.984 2.391-.797 1.219-4.688-2.906v-6h1.5zM7.922 3.422L3.281 7.219l-1.266-1.5 4.594-3.797zm14.062 2.297l-1.266 1.5-4.641-3.938 1.313-1.5z"/></svg>
